!!!OTL: LIRUM LARUM LOEFFELSTIEL
!!!ARE: Europa, Mitteleuropa, Deutschland, Thueringen, Stotternheim
!!!SCT: K0222
!!!YEM: Copyright 1995, estate of Helmut Schaffrath.
**kern
*ICvox
*Ivox
*M2/4
*k[f#]
*G:
=1
{8dd
8dd
8b
8g
=2
8ee
8ee
4dd}
=3
{8cc
8cc
8b
8b
=4
8a
8a
4g}
=5
{8dd
8dd
8b
8g
=6
8ee
8ee
4dd}
=7
{8cc
8cc
8b
8b
=8
8a
8a
4g}
==
!!!AGN: Kinder -, Kose -, Scherz - Lied
!!!ONB: ESAC (Essen Associative Code) Database: KINDER
!!!AMT: simple duple
!!!AIN: vox
!!!EED: Helmut Schaffrath
!!!EEV: 1.0
*-
